T: Shoe The Donkey
M: 3/4
L: 1/8
K: Gmaj
|:f>e f2 A2|f>e f2 A2|f>e f2 g2|f2 e4|  e>^d e2 A2|e>^d e2 A2|e>^d e2 f2|e2 d4:||F>G A2 d2|c2 B2 G2|E>F G2 B2|A2 F4| F>F F2 E2|F2 G3 F|G>A B2 A2|^G2 A4| F>G A2 d2|c2 G4|E>F G2 B2|A2 F4| F>F F2 E2|F2 G3 F|G>A B2 A2|C2 D4||
